X:728
T:Vaqueirada (CT 259)
R:Vaqueirada
C:Tradicional
S:Msica Tradicional Asturiana, (C) Tello & Tito. Asturies, 2001.
S:http://pagina.de/MusTradAst <telloytito@asturies.org>
N:Cancin de baile de pandero, transcrita en Perlunes, ayuntamiento de Somiedu.
N:Es propia de los vaqueiros.
A:Asturies
O:Perlunes (Somiedu)
Z:Cancioneru de Torner 259
M:6/8
L:1/8
Q:3/8=88
K:Gm
|:^FAA GBB|A2G- G3|^FAA GBB|A2G- GBc|
d3 dcB|[1 A2G- G2z:|[2 A2G- G3-|G2 z4||
W:Les mocines de la braa, (bis)
W:dan la l.leite a los chavales, (bis)
W:y van diciendo pa casa:
W:mam nun los tenrales.
W:
